icons/KoraCustom/apps/scalable/org.kde.windowtitle.svg

<svg xmlns="http://www.w3.org/2000/svg" width="48" height="48" version="1">
 <path style="opacity:0.2" d="M 4,12 V 42.714844 C 4,43.981987 5.0188705,45 6.2851562,45 H 44 V 12 Z"/>
 <path style="fill:#e4e4e4" d="M 4,12.9 V 41.714844 C 4,42.981987 5.0188705,44 6.2851562,44 H 44 V 12.9 Z"/>
 <path style="fill:#636e73" d="M 6.2851562,4 C 5.0188705,4 4,5.0180134 4,6.2851562 V 13 H 44 V 4 Z"/>
 <path style="opacity:0.2" d="m 6,7 v 1 h 1 v 4 H 8 V 8 H 9 V 7 Z m 4,0 v 1 h 1 V 7 Z m 2,0 v 1 h 1 v 4 h 1 V 8 h 1 V 7 Z m 4,0 v 4 1 h 3 V 11 H 17 V 7 Z m 4,0 v 1 1 1 1 1 h 3 v -1 h -2 v -1 h 2 V 9 H 21 V 8 h 2 V 7 Z M 10,9 v 3 h 1 V 9 Z"/>
 <path style="fill:#ffffff" d="m 6,6 v 1 h 1 v 4 H 8 V 7 H 9 V 6 Z m 4,0 v 1 h 1 V 6 Z m 2,0 v 1 h 1 v 4 h 1 V 7 h 1 V 6 Z m 4,0 v 4 1 h 3 V 10 H 17 V 6 Z m 4,0 v 1 1 1 1 1 h 3 V 10 H 21 V 9 h 2 V 8 H 21 V 7 h 2 V 6 Z M 10,7 v 4 h 1 V 7 Z"/>
 <path style="fill:#ffffff;opacity:0.1" d="M 6.2851562 4 C 5.0188705 4 4 5.0180134 4 6.2851562 L 4 7.2851562 C 4 6.0180132 5.0188705 5 6.2851562 5 L 44 5 L 44 4 L 6.2851562 4 z"/>
</svg>

<svg clip-rule="evenodd" fill-rule="evenodd" stroke-linejoin="round" stroke-miterlimit="2" viewBox="0 0 48 48" xmlns="http://www.w3.org/2000/svg">
 <linearGradient id="a" x2="1" gradientTransform="matrix(0 -36.2165 36.2165 0 658.378 42.119)" gradientUnits="userSpaceOnUse">
  <stop stop-color="#566069" offset="0"/>
  <stop stop-color="#6c7884" offset="1"/>
 </linearGradient>
 <linearGradient id="b" x2="1" gradientTransform="matrix(-.30178 -32.3809 32.3809 -.30178 5987.28 -15.5052)" gradientUnits="userSpaceOnUse">
  <stop stop-color="#ccc" offset="0"/>
  <stop stop-color="#f5f2f5" offset="1"/>
 </linearGradient>
 <path transform="matrix(1 0 0 -1 0 48)" d="m39.44 2.332c3.438 0 6.228 2.79 6.228 6.228v30.88c0 3.438-2.79 6.228-6.228 6.228h-30.88c-3.438 0-6.228-2.79-6.228-6.228v-30.88c0-3.438 2.79-6.228 6.228-6.228z" fill="url(#a)"/>
 <g fill-rule="nonzero">
  <path transform="matrix(1 0 0 -1 0 48)" d="m45.668 38.226v1.214c0 3.438-2.79 6.228-6.228 6.228h-30.88c-3.438 0-6.228-2.79-6.228-6.228v-1.214z" fill="url(#b)"/>
  <path transform="translate(8.8139 -2.447)" d="m6 6v1h1v4h1v-4h1v-1zm4 0v1h1v-1zm2 0v1h1v4h1v-4h1v-1zm4 0v5h3v-1h-2v-4zm4 0v5h3v-1h-2v-1h2v-1h-2v-1h2v-1zm-10 1v4h1v-4z" fill="#59636d"/>
 </g>
</svg>
